website/public/Images/logos/mongodb_white.svg

<svg width="13" height="28" viewBox="0 0 13 28" fill="none" xmlns="http://www.w3.org/2000/svg">
<g clip-path="url(#clip0)">
<path d="M12.234 11.116C10.8207 4.62 7.91398 2.884 7.16732 1.68C6.74065 1.008 6.34065 0 6.34065 0C6.31398 0.56 6.23399 0.952 5.75399 1.372C4.82065 2.24 0.847319 5.656 0.527319 13.02C0.207319 19.88 5.32732 24.136 6.02065 24.584C6.55399 24.864 7.16732 24.584 7.48732 24.332C9.94065 22.568 13.3273 17.808 12.234 11.116Z" fill="white"/>
<path d="M6.55316 20.916C6.41983 22.624 6.33983 23.604 5.99316 24.584C6.09946 25.6968 6.22392 26.8077 6.3665 27.916H6.89983C7.0865 25.984 7.4865 24.332 7.4865 24.332C6.79316 23.968 6.57983 22.4 6.55316 20.916Z" fill="white"/>
<path d="M7.48659 24.3326C6.79326 23.9966 6.57992 22.4006 6.55326 20.9166C6.71326 18.9006 6.79325 16.2966 6.71325 13.5806C6.68659 12.2926 6.73992 1.68062 6.41992 0.140625C6.55326 0.448625 6.87326 1.14863 7.16659 1.68062C7.91326 2.91263 10.8199 4.62063 12.2333 11.1166C13.2999 17.8086 9.96659 22.5406 7.48659 24.3326Z" fill="#EAEAEA"/>
</g>
<defs>
<clipPath id="clip0">
<rect width="12" height="28" fill="white" transform="translate(0.5)"/>
</clipPath>
</defs>
</svg>

<svg xmlns="http://www.w3.org/2000/svg" width="13" height="28" fill="none" xmlns:v="https://vecta.io/nano"><g clip-path="url(#A)"><g fill="#fff"><path d="M12.234 11.116C10.821 4.62 7.914 2.884 7.167 1.68 6.741 1.008 6.341 0 6.341 0c-.027.56-.107.952-.587 1.372C4.821 2.24.847 5.656.527 13.02c-.32 6.86 4.8 11.116 5.493 11.564.533.28 1.147 0 1.467-.252 2.453-1.764 5.84-6.524 4.747-13.216z"/><path d="M6.553 20.916c-.133 1.708-.213 2.688-.56 3.668l.373 3.332H6.9c.187-1.932.587-3.584.587-3.584-.693-.364-.907-1.932-.933-3.416z"/></g><path d="M7.487 24.333c-.693-.336-.907-1.932-.933-3.416a70.02 70.02 0 0 0 .16-7.336c-.027-1.288.027-11.9-.293-13.44.133.308.453 1.008.747 1.54.747 1.232 3.653 2.94 5.067 9.436 1.067 6.692-2.267 11.424-4.747 13.216z" fill="#eaeaea"/></g><defs><clipPath id="A"><path fill="#fff" transform="translate(.5)" d="M0 0h12v28H0z"/></clipPath></defs></svg>
